src/assets/images/logo.svg

<svg width="191" height="40" viewBox="0 0 191 40" fill="none" xmlns="http://www.w3.org/2000/svg">
<g clip-path="url(#clip0_34_109)">
<path d="M25.0925 1.05386L21.1595 0L17.8451 12.3696L14.8528 1.20224L10.9197 2.2561L14.1527 14.3216L6.10008 6.26898L3.22089 9.14817L12.0536 17.981L1.05386 15.0336L0 18.9666L12.0186 22.187C11.881 21.5935 11.8082 20.9751 11.8082 20.3397C11.8082 15.8421 15.4542 12.1961 19.9518 12.1961C24.4494 12.1961 28.0954 15.8421 28.0954 20.3397C28.0954 20.971 28.0235 21.5856 27.8876 22.1756L38.8103 25.1023L39.8641 21.1693L27.7977 17.9361L38.7982 14.9885L37.7443 11.0555L25.6784 14.2885L33.731 6.23592L30.8518 3.35673L22.1416 12.067L25.0925 1.05386Z" fill="#FF820A"/>
<path d="M27.877 22.2214C27.5398 23.647 26.8279 24.9277 25.8511 25.9538L33.7641 33.8669L36.6433 30.9877L27.877 22.2214Z" fill="#FF820A"/>
<path d="M25.7712 26.0366C24.7826 27.0463 23.5333 27.7998 22.1323 28.1881L25.0117 38.9341L28.9447 37.8802L25.7712 26.0366Z" fill="#FF820A"/>
<path d="M21.985 28.2274C21.335 28.3945 20.6537 28.4833 19.9516 28.4833C19.1994 28.4833 18.471 28.3813 17.7795 28.1904L14.8975 38.9462L18.8305 40L21.985 28.2274Z" fill="#FF820A"/>
<path d="M17.6409 28.1507C16.2613 27.7431 15.0342 26.98 14.0658 25.9674L6.1333 33.8999L9.01249 36.7791L17.6409 28.1507Z" fill="#FF820A"/>
<path d="M13.9994 25.8973C13.0476 24.8783 12.3543 23.6147 12.0243 22.2111L1.06592 25.1474L2.11977 29.0804L13.9994 25.8973Z" fill="#FF820A"/>
<path d="M53.6483 27L50.3703 12.48H53.8243L55.9803 24.294H56.2223L58.7743 12.48H62.8003L65.3523 24.294H65.6163L67.7723 12.48H71.0503L67.7283 27H63.3063L60.8423 15.186H60.6443L58.1803 27H53.6483ZM77.8464 27.308C76.893 27.308 76.0424 27.176 75.2944 26.912C74.561 26.648 73.9377 26.2667 73.4244 25.768C72.911 25.2693 72.515 24.6533 72.2364 23.92C71.9724 23.1867 71.8404 22.358 71.8404 21.434C71.8404 20.5247 71.965 19.6887 72.2144 18.926C72.4784 18.1487 72.8597 17.4813 73.3584 16.924C73.857 16.352 74.4657 15.912 75.1844 15.604C75.903 15.296 76.717 15.142 77.6264 15.142C78.5064 15.142 79.291 15.2887 79.9804 15.582C80.6697 15.8607 81.2417 16.286 81.6964 16.858C82.1657 17.43 82.503 18.134 82.7084 18.97C82.9284 19.7913 83.009 20.7373 82.9504 21.808L73.8864 21.896V20.158L81.1244 20.092L80.0024 20.972C80.105 20.1947 80.0537 19.5567 79.8484 19.058C79.643 18.5593 79.3424 18.1927 78.9464 17.958C78.565 17.7233 78.1397 17.606 77.6704 17.606C77.113 17.606 76.6217 17.7527 76.1964 18.046C75.771 18.3393 75.441 18.772 75.2064 19.344C74.9717 19.9013 74.8544 20.576 74.8544 21.368C74.8544 22.6147 75.1257 23.5313 75.6684 24.118C76.2257 24.7047 76.9517 24.998 77.8464 24.998C78.257 24.998 78.6017 24.9467 78.8804 24.844C79.1737 24.7267 79.4084 24.58 79.5844 24.404C79.775 24.228 79.9217 24.03 80.0244 23.81C80.1417 23.59 80.237 23.37 80.3104 23.15L83.0604 23.744C82.9284 24.2867 82.7304 24.778 82.4664 25.218C82.217 25.6433 81.8797 26.0173 81.4544 26.34C81.029 26.648 80.5157 26.8827 79.9144 27.044C79.3277 27.22 78.6384 27.308 77.8464 27.308ZM87.9891 27.308C87.3437 27.308 86.7717 27.1833 86.2731 26.934C85.7744 26.67 85.3857 26.296 85.1071 25.812C84.8284 25.328 84.6891 24.7267 84.6891 24.008C84.6891 23.3773 84.8064 22.8493 85.0411 22.424C85.2904 21.9987 85.6497 21.654 86.1191 21.39C86.5884 21.126 87.1677 20.906 87.8571 20.73C88.5464 20.554 89.3311 20.4 90.2111 20.268C90.6804 20.1947 91.0617 20.1287 91.3551 20.07C91.6631 19.9967 91.8904 19.8867 92.0371 19.74C92.1837 19.5787 92.2571 19.3513 92.2571 19.058C92.2571 18.6473 92.1104 18.2953 91.8171 18.002C91.5237 17.7087 91.0617 17.562 90.4311 17.562C90.0057 17.562 89.6097 17.6353 89.2431 17.782C88.8911 17.9287 88.5831 18.1487 88.3191 18.442C88.0697 18.7353 87.8864 19.1093 87.7691 19.564L84.9751 18.706C85.1511 18.1047 85.4004 17.584 85.7231 17.144C86.0604 16.704 86.4637 16.3373 86.9331 16.044C87.4024 15.736 87.9377 15.5087 88.5391 15.362C89.1404 15.2153 89.7931 15.142 90.4971 15.142C91.6264 15.142 92.5431 15.3253 93.2471 15.692C93.9657 16.044 94.5011 16.6013 94.8531 17.364C95.2051 18.112 95.3811 19.08 95.3811 20.268V22.248C95.3811 22.7613 95.3884 23.282 95.4031 23.81C95.4324 24.338 95.4617 24.8733 95.4911 25.416C95.5351 25.944 95.5791 26.472 95.6231 27H92.8291C92.7704 26.6333 92.7117 26.2153 92.6531 25.746C92.6091 25.262 92.5724 24.778 92.5431 24.294H92.1471C91.9417 24.8513 91.6484 25.3573 91.2671 25.812C90.8857 26.2667 90.4164 26.6333 89.8591 26.912C89.3164 27.176 88.6931 27.308 87.9891 27.308ZM89.3311 25.02C89.6097 25.02 89.8884 24.9687 90.1671 24.866C90.4604 24.7633 90.7391 24.624 91.0031 24.448C91.2817 24.2573 91.5311 24.0227 91.7511 23.744C91.9857 23.4653 92.1764 23.15 92.3231 22.798L92.2791 20.95L92.7851 21.06C92.5211 21.2507 92.2131 21.4047 91.8611 21.522C91.5091 21.6247 91.1424 21.7053 90.7611 21.764C90.3944 21.8227 90.0277 21.8887 89.6611 21.962C89.2944 22.0353 88.9644 22.1307 88.6711 22.248C88.3924 22.3653 88.1651 22.5267 87.9891 22.732C87.8277 22.9227 87.7471 23.194 87.7471 23.546C87.7471 24.0007 87.8937 24.36 88.1871 24.624C88.4804 24.888 88.8617 25.02 89.3311 25.02ZM102.442 27.264C101.152 27.264 100.198 26.9267 99.5822 26.252C98.9809 25.5627 98.6802 24.47 98.6802 22.974V17.936H97.0082L97.0522 15.45H98.2182C98.6729 15.45 99.0102 15.384 99.2302 15.252C99.4502 15.12 99.5822 14.878 99.6262 14.526L99.9122 12.876H101.716V15.45H104.642V18.024H101.716V22.842C101.716 23.37 101.841 23.7513 102.09 23.986C102.34 24.2207 102.721 24.338 103.234 24.338C103.513 24.338 103.777 24.3087 104.026 24.25C104.29 24.1913 104.518 24.096 104.708 23.964V26.912C104.254 27.0587 103.836 27.154 103.454 27.198C103.073 27.242 102.736 27.264 102.442 27.264ZM106.896 27V19.74V11.27H110.086V14.878C110.086 15.1713 110.072 15.4793 110.042 15.802C110.028 16.1247 109.991 16.4547 109.932 16.792C109.888 17.1147 109.837 17.4447 109.778 17.782C109.734 18.1193 109.683 18.4567 109.624 18.794H110.108C110.314 18.046 110.57 17.4007 110.878 16.858C111.201 16.3153 111.612 15.8973 112.11 15.604C112.609 15.296 113.24 15.142 114.002 15.142C115.352 15.142 116.364 15.6187 117.038 16.572C117.713 17.5107 118.05 18.9553 118.05 20.906V27H114.86V21.39C114.86 20.158 114.677 19.2487 114.31 18.662C113.958 18.0607 113.423 17.76 112.704 17.76C112.118 17.76 111.634 17.936 111.252 18.288C110.871 18.64 110.585 19.1167 110.394 19.718C110.204 20.3047 110.094 20.9647 110.064 21.698V27H106.896ZM126.143 27.308C125.19 27.308 124.339 27.176 123.591 26.912C122.858 26.648 122.235 26.2667 121.721 25.768C121.208 25.2693 120.812 24.6533 120.533 23.92C120.269 23.1867 120.137 22.358 120.137 21.434C120.137 20.5247 120.262 19.6887 120.511 18.926C120.775 18.1487 121.157 17.4813 121.655 16.924C122.154 16.352 122.763 15.912 123.481 15.604C124.2 15.296 125.014 15.142 125.923 15.142C126.803 15.142 127.588 15.2887 128.277 15.582C128.967 15.8607 129.539 16.286 129.993 16.858C130.463 17.43 130.8 18.134 131.005 18.97C131.225 19.7913 131.306 20.7373 131.247 21.808L122.183 21.896V20.158L129.421 20.092L128.299 20.972C128.402 20.1947 128.351 19.5567 128.145 19.058C127.94 18.5593 127.639 18.1927 127.243 17.958C126.862 17.7233 126.437 17.606 125.967 17.606C125.41 17.606 124.919 17.7527 124.493 18.046C124.068 18.3393 123.738 18.772 123.503 19.344C123.269 19.9013 123.151 20.576 123.151 21.368C123.151 22.6147 123.423 23.5313 123.965 24.118C124.523 24.7047 125.249 24.998 126.143 24.998C126.554 24.998 126.899 24.9467 127.177 24.844C127.471 24.7267 127.705 24.58 127.881 24.404C128.072 24.228 128.219 24.03 128.321 23.81C128.439 23.59 128.534 23.37 128.607 23.15L131.357 23.744C131.225 24.2867 131.027 24.778 130.763 25.218C130.514 25.6433 130.177 26.0173 129.751 26.34C129.326 26.648 128.813 26.8827 128.211 27.044C127.625 27.22 126.935 27.308 126.143 27.308ZM133.558 27V21.412V15.45H136.176L136.198 19.388H136.616C136.734 18.4053 136.932 17.606 137.21 16.99C137.504 16.374 137.907 15.9193 138.42 15.626C138.934 15.3327 139.572 15.186 140.334 15.186C140.466 15.186 140.606 15.1933 140.752 15.208C140.914 15.208 141.097 15.23 141.302 15.274L141.17 18.64C140.95 18.5373 140.708 18.464 140.444 18.42C140.18 18.376 139.946 18.354 139.74 18.354C139.168 18.354 138.677 18.486 138.266 18.75C137.856 19.014 137.518 19.3953 137.254 19.894C137.005 20.378 136.836 20.972 136.748 21.676V27H133.558ZM147.112 27L152.084 12.48H156.704L161.676 27H158.244L154.57 14.988H154.24L150.544 27H147.112ZM149.906 24.14V21.984H159.344V24.14H149.906ZM163.486 30.696V21.324V15.45H166.104L166.126 18.662L166.522 18.684C166.654 17.9067 166.882 17.254 167.204 16.726C167.542 16.198 167.974 15.802 168.502 15.538C169.03 15.274 169.639 15.142 170.328 15.142C171.355 15.142 172.235 15.3987 172.968 15.912C173.702 16.4107 174.259 17.122 174.64 18.046C175.036 18.9553 175.234 20.0333 175.234 21.28C175.234 22.4387 175.058 23.4727 174.706 24.382C174.354 25.2767 173.826 25.988 173.122 26.516C172.433 27.044 171.568 27.308 170.526 27.308C169.793 27.308 169.17 27.1687 168.656 26.89C168.158 26.6113 167.74 26.2227 167.402 25.724C167.08 25.2107 166.808 24.602 166.588 23.898H166.17C166.258 24.294 166.339 24.6973 166.412 25.108C166.486 25.5187 166.544 25.922 166.588 26.318C166.632 26.6993 166.654 27.0733 166.654 27.44V30.696H163.486ZM169.426 24.778C169.954 24.778 170.402 24.6313 170.768 24.338C171.135 24.0447 171.414 23.634 171.604 23.106C171.81 22.578 171.912 21.9767 171.912 21.302C171.912 20.5687 171.81 19.9453 171.604 19.432C171.399 18.904 171.106 18.4933 170.724 18.2C170.343 17.9067 169.888 17.76 169.36 17.76C168.891 17.76 168.488 17.8627 168.15 18.068C167.813 18.2733 167.527 18.5447 167.292 18.882C167.072 19.2193 166.911 19.586 166.808 19.982C166.706 20.3633 166.654 20.73 166.654 21.082V21.5C166.654 21.7787 166.691 22.072 166.764 22.38C166.838 22.6733 166.955 22.9667 167.116 23.26C167.278 23.5387 167.468 23.7953 167.688 24.03C167.908 24.25 168.165 24.4333 168.458 24.58C168.752 24.712 169.074 24.778 169.426 24.778ZM177.515 30.696V21.324V15.45H180.133L180.155 18.662L180.551 18.684C180.683 17.9067 180.911 17.254 181.233 16.726C181.571 16.198 182.003 15.802 182.531 15.538C183.059 15.274 183.668 15.142 184.357 15.142C185.384 15.142 186.264 15.3987 186.997 15.912C187.731 16.4107 188.288 17.122 188.669 18.046C189.065 18.9553 189.263 20.0333 189.263 21.28C189.263 22.4387 189.087 23.4727 188.735 24.382C188.383 25.2767 187.855 25.988 187.151 26.516C186.462 27.044 185.597 27.308 184.555 27.308C183.822 27.308 183.199 27.1687 182.685 26.89C182.187 26.6113 181.769 26.2227 181.431 25.724C181.109 25.2107 180.837 24.602 180.617 23.898H180.199C180.287 24.294 180.368 24.6973 180.441 25.108C180.515 25.5187 180.573 25.922 180.617 26.318C180.661 26.6993 180.683 27.0733 180.683 27.44V30.696H177.515ZM183.455 24.778C183.983 24.778 184.431 24.6313 184.797 24.338C185.164 24.0447 185.443 23.634 185.633 23.106C185.839 22.578 185.941 21.9767 185.941 21.302C185.941 20.5687 185.839 19.9453 185.633 19.432C185.428 18.904 185.135 18.4933 184.753 18.2C184.372 17.9067 183.917 17.76 183.389 17.76C182.92 17.76 182.517 17.8627 182.179 18.068C181.842 18.2733 181.556 18.5447 181.321 18.882C181.101 19.2193 180.94 19.586 180.837 19.982C180.735 20.3633 180.683 20.73 180.683 21.082V21.5C180.683 21.7787 180.72 22.072 180.793 22.38C180.867 22.6733 180.984 22.9667 181.145 23.26C181.307 23.5387 181.497 23.7953 181.717 24.03C181.937 24.25 182.194 24.4333 182.487 24.58C182.781 24.712 183.103 24.778 183.455 24.778Z" fill="white"/>
</g>
<defs>
<clipPath id="clip0_34_109">
<rect width="190.864" height="40" fill="white"/>
</clipPath>
</defs>
</svg>

<svg xmlns="http://www.w3.org/2000/svg" width="197" height="40" fill="none" viewBox="0 0 197 40"><g clip-path="url(#a)"><path fill="#FF820A" d="M25.093 1.054 21.16 0l-3.315 12.37-2.992-11.168-3.933 1.054 3.233 12.066L6.1 6.269l-2.88 2.88 8.834 8.832-11-2.947L0 18.967l12.019 3.22a8.144 8.144 0 1 1 15.869-.011l10.922 2.926 1.054-3.933-12.066-3.233 11-2.947-1.054-3.934-12.066 3.234 8.053-8.053-2.88-2.88-8.71 8.711 2.952-11.013Z"/><path fill="#FF820A" d="M27.877 22.221a8.127 8.127 0 0 1-2.026 3.733l7.913 7.913 2.88-2.88-8.767-8.766ZM25.771 26.037a8.137 8.137 0 0 1-3.639 2.151l2.88 10.746 3.933-1.054-3.174-11.843ZM21.985 28.227a8.157 8.157 0 0 1-2.033.256c-.753 0-1.481-.102-2.173-.293l-2.881 10.756L18.83 40l3.154-11.773ZM17.64 28.15a8.142 8.142 0 0 1-3.574-2.183L6.133 33.9l2.88 2.88 8.628-8.63ZM14 25.897a8.125 8.125 0 0 1-1.976-3.686L1.066 25.147 2.12 29.08 14 25.897Z"/><path fill="#fff" d="M53.648 27 50.37 12.48h3.454l2.156 11.814h.242l2.552-11.814H62.8l2.552 11.814h.264l2.156-11.814h3.278L67.728 27h-4.422l-2.464-11.814h-.198L58.18 27h-4.532Zm24.198.308c-.953 0-1.804-.132-2.552-.396a5.14 5.14 0 0 1-1.87-1.144 5.018 5.018 0 0 1-1.188-1.848c-.264-.733-.396-1.562-.396-2.486 0-.91.125-1.745.374-2.508a5.719 5.719 0 0 1 1.144-2.002 5 5 0 0 1 1.826-1.32c.719-.308 1.533-.462 2.442-.462.88 0 1.665.147 2.354.44.69.279 1.262.704 1.716 1.276.47.572.807 1.276 1.012 2.112.22.821.301 1.767.242 2.838l-9.064.088v-1.738l7.238-.066-1.122.88c.103-.777.052-1.415-.154-1.914-.205-.499-.506-.865-.902-1.1a2.386 2.386 0 0 0-1.276-.352c-.557 0-1.048.147-1.474.44-.425.293-.755.726-.99 1.298-.234.557-.352 1.232-.352 2.024 0 1.247.272 2.163.814 2.75.558.587 1.284.88 2.178.88.411 0 .756-.051 1.034-.154.294-.117.528-.264.704-.44.191-.176.338-.374.44-.594.118-.22.213-.44.286-.66l2.75.594a5.262 5.262 0 0 1-.594 1.474c-.249.425-.586.8-1.012 1.122-.425.308-.938.543-1.54.704-.586.176-1.276.264-2.068.264Zm10.143 0c-.645 0-1.217-.125-1.716-.374a2.864 2.864 0 0 1-1.166-1.122c-.279-.484-.418-1.085-.418-1.804 0-.63.117-1.159.352-1.584.25-.425.609-.77 1.078-1.034.47-.264 1.049-.484 1.738-.66.69-.176 1.474-.33 2.354-.462.47-.073.85-.14 1.144-.198.308-.073.535-.183.682-.33.147-.161.22-.389.22-.682 0-.41-.147-.763-.44-1.056-.293-.293-.755-.44-1.386-.44-.425 0-.821.073-1.188.22-.352.147-.66.367-.924.66-.25.293-.433.667-.55 1.122l-2.794-.858a4.982 4.982 0 0 1 .748-1.562c.337-.44.74-.807 1.21-1.1a5.106 5.106 0 0 1 1.606-.682 8.25 8.25 0 0 1 1.958-.22c1.13 0 2.046.183 2.75.55.719.352 1.254.91 1.606 1.672.352.748.528 1.716.528 2.904v1.98c0 .513.007 1.034.022 1.562.03.528.059 1.063.088 1.606L95.623 27H92.83a37.091 37.091 0 0 1-.176-1.254c-.044-.484-.08-.968-.11-1.452h-.396a5.078 5.078 0 0 1-.88 1.518c-.381.455-.85.821-1.408 1.1-.543.264-1.166.396-1.87.396Zm1.342-2.288c.279 0 .557-.051.836-.154.293-.103.572-.242.836-.418.279-.19.528-.425.748-.704.235-.279.425-.594.572-.946l-.044-1.848.506.11c-.264.19-.572.345-.924.462a8.59 8.59 0 0 1-1.1.242c-.367.059-.733.125-1.1.198a5.652 5.652 0 0 0-.99.286 1.8 1.8 0 0 0-.682.484c-.161.19-.242.462-.242.814 0 .455.147.814.44 1.078.293.264.675.396 1.144.396Zm13.111 2.244c-1.29 0-2.244-.337-2.86-1.012-.601-.69-.902-1.782-.902-3.278v-5.038h-1.672l.044-2.486h1.166c.455 0 .792-.066 1.012-.198.22-.132.352-.374.396-.726l.286-1.65h1.804v2.574h2.926v2.574h-2.926v4.818c0 .528.125.91.374 1.144.25.235.631.352 1.144.352.279 0 .543-.03.792-.088a1.91 1.91 0 0 0 .682-.286v2.948a6.552 6.552 0 0 1-1.254.286 8.932 8.932 0 0 1-1.012.066Zm4.454-.264V11.27h3.19v3.608c0 .293-.014.601-.044.924a7.678 7.678 0 0 1-.11.99c-.044.323-.095.653-.154.99-.044.337-.095.675-.154 1.012h.484c.206-.748.462-1.393.77-1.936.323-.543.734-.96 1.232-1.254.499-.308 1.13-.462 1.892-.462 1.35 0 2.362.477 3.036 1.43.675.939 1.012 2.383 1.012 4.334V27h-3.19v-5.61c0-1.232-.183-2.141-.55-2.728-.352-.601-.887-.902-1.606-.902-.586 0-1.07.176-1.452.528-.381.352-.667.829-.858 1.43-.19.587-.3 1.247-.33 1.98V27h-3.168Zm19.247.308c-.953 0-1.804-.132-2.552-.396a5.15 5.15 0 0 1-1.87-1.144 5.028 5.028 0 0 1-1.188-1.848c-.264-.733-.396-1.562-.396-2.486 0-.91.125-1.745.374-2.508a5.73 5.73 0 0 1 1.144-2.002 5.008 5.008 0 0 1 1.826-1.32c.719-.308 1.533-.462 2.442-.462.88 0 1.665.147 2.354.44.69.279 1.262.704 1.716 1.276.47.572.807 1.276 1.012 2.112.22.821.301 1.767.242 2.838l-9.064.088v-1.738l7.238-.066-1.122.88c.103-.777.052-1.415-.154-1.914-.205-.499-.506-.865-.902-1.1a2.383 2.383 0 0 0-1.276-.352c-.557 0-1.048.147-1.474.44-.425.293-.755.726-.99 1.298-.234.557-.352 1.232-.352 2.024 0 1.247.272 2.163.814 2.75.558.587 1.284.88 2.178.88.411 0 .756-.051 1.034-.154.294-.117.528-.264.704-.44.191-.176.338-.374.44-.594.118-.22.213-.44.286-.66l2.75.594a5.262 5.262 0 0 1-.594 1.474c-.249.425-.586.8-1.012 1.122-.425.308-.938.543-1.54.704-.586.176-1.276.264-2.068.264Zm7.415-.308V15.45h2.618l.022 3.938h.418c.118-.983.316-1.782.594-2.398.294-.616.697-1.07 1.21-1.364.514-.293 1.152-.44 1.914-.44.132 0 .272.007.418.022.162 0 .345.022.55.066l-.132 3.366a2.794 2.794 0 0 0-.726-.22 4.33 4.33 0 0 0-.704-.066c-.572 0-1.063.132-1.474.396-.41.264-.748.645-1.012 1.144-.249.484-.418 1.078-.506 1.782V27h-3.19Zm14.764 0V12.48h4.136l6.578 10.274h.242l-.198-10.274h3.08V27h-3.74l-6.952-10.758h-.242L151.424 27h-3.102Zm22.14.308c-1.158 0-2.178-.227-3.058-.682a5.052 5.052 0 0 1-2.068-2.046c-.498-.91-.748-2.039-.748-3.388 0-1.35.25-2.471.748-3.366.514-.895 1.21-1.562 2.09-2.002.895-.455 1.907-.682 3.036-.682 1.159 0 2.178.227 3.058.682a4.845 4.845 0 0 1 2.09 2.046c.514.895.77 2.017.77 3.366 0 1.364-.264 2.5-.792 3.41a4.873 4.873 0 0 1-2.112 2.002c-.88.44-1.884.66-3.014.66Zm.11-2.354c.572 0 1.049-.132 1.43-.396.396-.264.69-.66.88-1.188.206-.543.308-1.195.308-1.958 0-.807-.11-1.489-.33-2.046-.205-.572-.513-1.005-.924-1.298-.41-.308-.931-.462-1.562-.462-.542 0-1.012.132-1.408.396-.396.25-.696.645-.902 1.188-.205.528-.308 1.18-.308 1.958 0 1.247.25 2.193.748 2.838.499.645 1.188.968 2.068.968ZM180.306 27l-2.86-11.55h3.3l1.628 9.042h.418l1.936-9.042h3.806l2.002 9.042h.418l1.584-9.042h3.234L192.89 27h-4.356l-1.804-8.976h-.374L184.64 27h-4.334Z"/></g><defs><clipPath id="a"><path fill="#fff" d="M0 0h196.864v40H0z"/></clipPath></defs></svg>
